X:1
T:St. Pierre -- Hornpipe
R:hornpipe
B:Cole's 1000 Fiddle Tunes
M:C|
L:1/8
K:Bb
((3uFGA)|vBFDF B2(AB)|cAFA c2(Bc)|dcBA GABc|A2F2F2(GA)|
BFDF B2(AB)|cAFAc2(Bc)|dfdB AecA|B2d2B2:|
|:(uf=e)|vf_edc =BGAB|{d}c=Bcd e2(ed)|edcB AFGA|{c}BABc dfec|
BFDF B2(AB)|cAFA c2(Bc)|dbge dBcA|B2b2B2:|
